X: 12
T: 12. Adam's Hornpipe
M: C
L: 1/8
R: Hornpipe
Q: 1/4=140
K: F
cefa gedc | defd dcBA | BcdB ABcA | dcBA A2 G2 |!
cefa gedc | defd dcBA | BcdB cagf | gece f2 F2 :|!
|:afcA cfaf | gecA FAcf | defd cefc | cBAG A2 G2 |!
afcA cfaf | gecA FAcf | fbca BgAf | cBAG A2 F2 :|!

